icons/hiv_neg.svg

<svg width="48" height="48" viewBox="0 0 48 48" fill="none" xmlns="http://www.w3.org/2000/svg">
<path fill-rule="evenodd" clip-rule="evenodd" d="M29.5913 4.67461C28.7899 4.21665 27.8914 4 26.9238 4H21.6762C19.8517 4 18.0073 4.84975 16.8975 6.38697C16.8604 6.43373 16.8241 6.48089 16.7887 6.52844L14.4523 9.55709L13.641 10.639L13.6394 10.641C11.1085 13.9837 11.109 18.6379 13.641 21.98L13.6469 21.9878L18.1511 27.7016L10.8372 37.0602C10.1498 37.9398 10.3155 39.2118 11.2054 39.8859L15.5838 43.2029C16.4538 43.862 17.6916 43.7019 18.3652 42.843L24.2094 35.3917L30.0001 42.7749C30.7148 43.6861 32.0516 43.8018 32.9122 43.0268L36.9781 39.3654C37.7572 38.6639 37.8623 37.4799 37.2191 36.6521L30.2703 27.7085L33.143 24H30.6131L28.9964 26.0871L25.4438 21.5961L31.5099 13.7607C32.1354 12.9766 32.5351 12.0671 32.709 11.1228L33.1809 11.752L33.1839 11.7559C34.5581 13.5699 34.984 15.8791 34.4615 18H36.5083C36.9987 15.4425 36.4225 12.72 34.7795 10.5502L33.9667 9.46632L33.9584 9.45552L31.6269 6.43321L31.6156 6.41807L31.628 6.40924C31.0533 5.60468 30.276 5.06587 29.5913 4.67461ZM28.7743 14.0271L24.1743 19.9687L19.574 14.0266C20.1664 13.6876 20.8665 13.5093 21.5857 13.5093H26.8334C27.496 13.5093 28.1756 13.7019 28.7743 14.0271ZM30.0321 7.64018C31.076 9.05029 31.0686 11.0297 30.0099 12.4317C29.0758 11.862 27.965 11.5093 26.8334 11.5093H21.5857C20.4634 11.5093 19.3185 11.8099 18.3446 12.4333C17.8617 11.7462 17.6095 10.8772 17.6095 10.0667C17.6095 9.25167 17.8658 8.43472 18.3832 7.73584L18.4982 7.5867L18.5089 7.57171C19.2104 6.58966 20.4332 6 21.6762 6H26.9238C27.5847 6 28.1338 6.14525 28.5991 6.4111C29.1502 6.72601 29.6182 7.07087 29.9466 7.49897L29.932 7.51046L30.0321 7.64018ZM12.4131 38.2918L19.4258 29.3185L22.9373 33.7729L16.7915 41.6087L12.4131 38.2918ZM15.717 11.2043C15.8932 12.14 16.2873 13.0717 16.9091 13.8515L23.4252 22.2681L28.2204 28.3299L35.6398 37.8792L31.5738 41.5406L24.9963 33.1543L15.2295 20.7648C13.2438 18.1368 13.2457 14.4728 15.2352 11.8467L15.2381 11.8429L15.717 11.2043Z" fill="black"/>
<path d="M30 21C30 20.4477 30.4477 20 31 20H37C37.5523 20 38 20.4477 38 21C38 21.5523 37.5523 22 37 22H31C30.4477 22 30 21.5523 30 21Z" fill="black"/>
</svg>

<svg
  xmlns="http://www.w3.org/2000/svg"
  width="24"
  height="24"
  viewBox="0 0 24 24"
  fill="none"
  stroke="currentColor"
  stroke-width="2"
  stroke-linecap="round"
  stroke-linejoin="round"
>
  <path
    fill-rule="evenodd"
    d="M29.591 4.675C28.79 4.217 27.891 4 26.924 4h-5.248c-1.824 0-3.669.85-4.778 2.387l-.11.141-2.336 3.03-.811 1.081-.002.002a9.414 9.414 0 0 0 .002 11.339l.006.008 4.504 5.714-7.314 9.358a2 2 0 0 0 .368 2.826l4.379 3.317a2 2 0 0 0 2.781-.36l5.844-7.451L30 42.775a2 2 0 0 0 2.912.252l4.066-3.662a2 2 0 0 0 .241-2.713L30.27 27.71 33.143 24h-2.53l-1.617 2.087-3.552-4.49 6.066-7.836a5.95 5.95 0 0 0 1.199-2.638l.472.629.003.004A7.41 7.41 0 0 1 34.462 18h2.046a9.4 9.4 0 0 0-1.729-7.45l-.812-1.084-.009-.01-2.331-3.023-.011-.015.012-.009c-.575-.804-1.352-1.343-2.037-1.734m-.817 9.352-4.6 5.942-4.6-5.942a4.06 4.06 0 0 1 2.012-.518h5.247c.663 0 1.343.193 1.941.518m1.258-6.387a4.03 4.03 0 0 1-.022 4.792c-.934-.57-2.045-.923-3.177-.923h-5.247c-1.123 0-2.267.3-3.241.924a4.2 4.2 0 0 1-.735-2.366c0-.815.256-1.632.773-2.331l.115-.15.01-.014C19.21 6.59 20.434 6 21.677 6h5.248c.66 0 1.21.145 1.675.411.551.315 1.02.66 1.348 1.088l-.015.011zM12.413 38.292l7.013-8.974 3.511 4.455-6.146 7.836zm3.304-27.088c.176.936.57 1.868 1.192 2.647l6.516 8.417 4.795 6.062 7.42 9.55-4.066 3.66-6.578-8.386-9.766-12.39a7.414 7.414 0 0 1 .005-8.917l.003-.004z"
    clip-rule="evenodd"
  />
  <path d="M30 21a1 1 0 0 1 1-1h6a1 1 0 1 1 0 2h-6a1 1 0 0 1-1-1" />
</svg>
